X: 43629
T: Zakynthos, The
R: jig
M: 6/8
K: Aminor
|:"Am"a2 a gag|e2 a a2 g|e2 c BcB|A2 F "F"F3|
"Am"EAB cBA|"F"FAB cBA|"G"B2 B edc|"Am"Bcd cBA:|
|:"Am"EAB cBA|"F"FAB cBA|"G"B2 B edc|"Am"Bcd cBA|
"Am"EAB cBA|"F"FAB cBA|"G"B2 B edc|1 B2 A"Am"A3:|2 B2A "Am"ABc||
|:"Dm"d2 d2 c2|d c2 B2|d2 d2 cd|"E"B3 A3|
"Dm"d2 d2 c2|d c2 B2|d2c Bcd|"E"e3- e3:|

